!!!!SEGMENT: pl-cz--iii-686--002_volckmer-augustinus--requiem-dies-irae.krn
!!!cenid: 18xx:1141
!!!COM: Volckmer, Augustinus
!!!COM-rismid:
!!!CDT:
!!!CNT:
!!!OPR: Requiem
!!!OTL: Dies irae
!!!OMV: 002
!!!PDT: 1836
!!!AGN: Sacred; Requiem
!!!SMS-siglum: PL-CZ
!!!SMS-shelfmark: III-686
!!!SMS-shelfwork: 001-002 M
!!!SMS-variant:
!!!SMS-altvar:
!!!NIFC-rismid: 300001401
!!!URL-scan: http://repozytorium.nifc.pl/skany/pl-cz-nut--iii-686
!!!ONB-nifc: UWAGA: części Requiem: Requiem, Dies irae, Domine Jesu Christe, Sanctus et Benedictus, Agnus Dei. Uwaga: Sanctus i Benedictus to jedna część
!!!key: E-
**kern	**dynam	**fb	**kern	**dynam	**kern	**dynam	**kern	**text	**kern	**text	**kern	**text	**kern	**text	**kern	**kern	**kern	**kern	**kern	**dynam	**kern	**dynam	**kern
*part14	*part14	*	*part13	*part13	*part12	*part12	*part11	*part11	*part10	*part10	*part9	*part9	*part8	*part8	*part7	*part6	*part5	*part4	*part3	*part3	*part2	*part2	*part1
*staff14	*	*	*staff13	*	*staff12	*	*staff11	*staff11	*staff10	*staff10	*staff9	*staff9	*staff8	*staff8	*staff7	*staff6	*staff5	*staff4	*staff3	*	*staff2	*	*staff1
*group	*group	*	*group4	*group4	*group4	*group4	*group3	*group3	*group3	*group3	*group3	*group3	*group3	*group3	*group2	*group2	*group2	*group2	*group1	*group1	*group1	*group1	*group1
*I"Organo.	*	*	*I"Violino IIdo	*	*I"Violino Primo	*	*I"Basso	*	*I"Tenore,	*	*I"Alto.	*	*I"Canto	*	*I"Tromba IIdo in Es	*I"Tromba 1ma in Es con Sordino	*I"Cornuo IIdo in Es.	*I"Corno Prymo in Es	*I"Fagotto.	*	*I"Clarinetto IIdo in B.	*	*I"Clarinetto 1mo in B.
*I'org	*	*	*I'vl 2	*	*I'vl 1	*	*I'B	*	*I'T	*	*I'A	*	*I'S	*	*I'tr 2 in E|b	*I'tr 1 in E|b	*I'cor 2 in E|b	*I'cor 1 in E|b	*I'fag	*	*I'cl 2 in B|b	*	*I'cl 1 in B|b
*Iorgan	*	*	*Ivioln	*	*Ivioln	*	*Ibass	*	*Itenor	*	*Ialto	*	*Isoprn	*	*Itromp	*	*Itromp	*Ifagot	*Icor	*Icor	*Iclarb	*	*Iclarb
*ICklav	*	*	*ICstr	*	*ICstr	*	*ICvox	*	*ICvox	*	*ICvox	*	*ICvox	*	*ICbras	*ICbras	*ICbras	*ICbras	*ICww	*	*ICww	*	*ICww
*clefF4	*	*	*clefG2	*	*clefG2	*	*clefF4	*	*clefC4	*	*clefC3	*	*clefC1	*	*clefG2	*clefG2	*clefG2	*clefG2	*clefF4	*	*clefG2	*	*clefG2
*	*	*	*	*	*	*	*	*	*	*	*	*	*	*	*ITrd-2c-3	*ITrd-2c-3	*ITrd-2c-3	*ITrd-2c-3	*	*	*ITrd1c2	*	*ITrd1c2
*k[b-e-a-]	*	*	*k[b-e-a-]	*	*k[b-e-a-]	*	*k[b-e-a-]	*	*k[b-e-a-]	*	*k[b-e-a-]	*	*k[b-e-a-]	*	*k[b-e-a-]	*k[b-e-a-]	*k[b-e-a-]	*k[b-e-a-]	*k[b-e-a-]	*	*k[b-e-a-]	*	*k[b-e-a-]
*E-:	*	*	*E-:	*	*E-:	*	*E-:	*	*E-:	*	*E-:	*	*E-:	*	*E-:	*E-:	*E-:	*E-:	*E-:	*	*E-:	*	*E-:
*M4/4	*	*	*M4/4	*	*M4/4	*	*M4/4	*	*M4/4	*	*M4/4	*	*M4/4	*	*M4/4	*M4/4	*M4/4	*M4/4	*M4/4	*	*M4/4	*	*M4/4
*met(c)	*	*	*met(c)	*	*met(c)	*	*met(c)	*	*met(c|)	*	*met(c)	*	*met(c)	*	*met(c)	*met(c)	*met(c)	*met(c|)	*met(c)	*	*met(c|)	*	*met(c|)
=1	=1	=1	=1	=1	=1	=1	=1	=1	=1	=1	=1	=1	=1	=1	=1	=1	=1	=1	=1	=1	=1	=1	=1
*tremolo	*	*above	*	*	*	*	*	*	*	*	*	*	*	*	*	*	*2\right	*2\right	*2\right	*	*	*	*2\right
*2\right	*	*	*	*	*	*	*	*	*	*	*	*	*	*	*	*	*	*	*tremolo	*	*	*	*
!LO:TX:a:i:t=Allo modto.	!	!	!LO:TX:a:i:t=allo modto.	!	!LO:TX:a:i:t=Allo moderato.	!LO:DY:a	!LO:TX:a:i:t=Allo modearto	!	!	!	!LO:TX:a:i:t=allo modto.	!	!LO:TX:a:i:t=Allo moderato	!	!	!LO:TX:a:i:t=Allo moderato.	!LO:TX:a:i:t=allo molo	!LO:TX:a:i:t=allo moderatto	!LO:TX:a:i:t=Allo modto	!	!LO:TX:a:i:t=Allo Mod.	!	!LO:TX:a:i:t=Allo Mod.
!LO:TX:a:t=P:problem:w źródle znaki przykluczowe C- G-	!	!	!	!	!	!	!LO:TX:a:t=P:problem:w źródle znaki przykluczowe C- G-	!	!LO:TX:a:t=P:problem:w źródle znaki przykluczowe B- G- F-	!	!	!	!LO:TX:a:t=P:problem:w źródle znaki przykluczowe b- e- f-	!	!	!	!	!	!	!	!	!	!
!	!	!	!	!	!	!	!	!	!	!	!	!	!	!	!	!	!	!	!LO:TX:a:t=P:problem:w źródle znaki przykluczowe F- D-	!	!	!LO:DY:b:rj	!
8E-\L	.	.	1r	.	16e-/LL	f	2r	.	2r	.	2r	.	2r	.	2e-/	2g/	2ee-\	2gg\	8E-\L	.	2g/	f	2ee-\
.	.	.	.	.	16f/	.	.	.	.	.	.	.	.	.	.	.	.	.	.	.	.	.	.
8E-\	.	.	.	.	16g/	.	.	.	.	.	.	.	.	.	.	.	.	.	8E-\	.	.	.	.
.	.	.	.	.	16a-/JJ	.	.	.	.	.	.	.	.	.	.	.	.	.	.	.	.	.	.
8E-\	.	.	.	.	16b-/LL	.	.	.	.	.	.	.	.	.	.	.	.	.	8E-\	.	.	.	.
.	.	.	.	.	16a-/	.	.	.	.	.	.	.	.	.	.	.	.	.	.	.	.	.	.
8E-\J	.	.	.	.	16g/	.	.	.	.	.	.	.	.	.	.	.	.	.	8E-\J	.	.	.	.
.	.	.	.	.	16f/JJ	.	.	.	.	.	.	.	.	.	.	.	.	.	.	.	.	.	.
8E-\L	.	.	.	.	16e-/LL	.	4r	.	4r	.	4r	.	4r	.	2r	2r	2r	2r	8E-\L	.	2r	.	2r
.	.	.	.	.	16f/	.	.	.	.	.	.	.	.	.	.	.	.	.	.	.	.	.	.
8E-\	.	.	.	.	16g/	.	.	.	.	.	.	.	.	.	.	.	.	.	8E-\	.	.	.	.
.	.	.	.	.	16a-/JJ	.	.	.	.	.	.	.	.	.	.	.	.	.	.	.	.	.	.
8E-\	.	.	.	.	16b-\LL	.	8E-\	Di-	8B-\	Di-	8g\	Di-	8ee-\	Di-	.	.	.	.	8E-\	.	.	.	.
.	.	.	.	.	16cc\	.	.	.	.	.	.	.	.	.	.	.	.	.	.	.	.	.	.
8E-\J	.	.	.	.	16dd\	.	8E-\	-es	8B-\	-es	8g\	-es	8ee-\	-es	.	.	.	.	8E-\J	.	.	.	.
.	.	.	.	.	16ee-\JJ	.	.	.	.	.	.	.	.	.	.	.	.	.	.	.	.	.	.
=2	=2	=2	=2	=2	=2	=2	=2	=2	=2	=2	=2	=2	=2	=2	=2	=2	=2	=2	=2	=2	=2	=2	=2
!	!	!	!	!LO:DY:b:rj:t=fe	!	!	!	!	!	!	!	!	!	!	!	!	!	!	!	!	!	!	!
8B-\L	.	.	16B-/LL	f	4dd\	.	4BB-/	ir-	4B-\	ir-	4f\	ir-	4dd\	i-	4r	4r	4r	4r	8B-\L	.	4r	.	4r
.	.	.	16c/	.	.	.	.	.	.	.	.	.	.	.	.	.	.	.	.	.	.	.	.
8B-\	.	.	16d/	.	.	.	.	.	.	.	.	.	.	.	.	.	.	.	8B-\	.	.	.	.
.	.	.	16e-/JJ	.	.	.	.	.	.	.	.	.	.	.	.	.	.	.	.	.	.	.	.
8B-\	.	.	16f/LL	.	4r	.	4BB-/	-re	4B-\	-re,	4f\	-re	4dd\	-re	4B-/	4b-/	4b-/	4ff\	8B-\	.	4b-\	.	4dd\
.	.	.	16e-/	.	.	.	.	.	.	.	.	.	.	.	.	.	.	.	.	.	.	.	.
8B-\J	.	.	16d/	.	.	.	.	.	.	.	.	.	.	.	.	.	.	.	8B-\J	.	.	.	.
.	.	.	16c/JJ	.	.	.	.	.	.	.	.	.	.	.	.	.	.	.	.	.	.	.	.
8B-\L	.	.	16B-/LL	.	2r	.	2r	.	2r	.	2r	.	2r	.	4B-/	4b-/	4b-/	4ff\	8B-\L	.	4b-\	.	4dd\
.	.	.	16c/	.	.	.	.	.	.	.	.	.	.	.	.	.	.	.	.	.	.	.	.
8B-\	.	.	16d/	.	.	.	.	.	.	.	.	.	.	.	.	.	.	.	8B-\	.	.	.	.
.	.	.	16e-/JJ	.	.	.	.	.	.	.	.	.	.	.	.	.	.	.	.	.	.	.	.
8B-\	.	.	16f/LL	.	.	.	.	.	.	.	.	.	.	.	4B-/	4b-/	4b-/	4ff\	8B-\	.	4b-\	.	4dd\
.	.	.	16g/	.	.	.	.	.	.	.	.	.	.	.	.	.	.	.	.	.	.	.	.
8B-\J	.	.	16a-/	.	.	.	.	.	.	.	.	.	.	.	.	.	.	.	8B-\J	.	.	.	.
.	.	.	16b-/JJ	.	.	.	.	.	.	.	.	.	.	.	.	.	.	.	.	.	.	.	.
!	!	!	!	!	!	!	!	!	!	!	!	!	!	!	!	!	!	!	!	!	!	!	!LO:LB:g=original
=3	=3	=3	=3	=3	=3	=3	=3	=3	=3	=3	=3	=3	=3	=3	=3	=3	=3	=3	=3	=3	=3	=3	=3
8c\L	.	.	4cc\	.	16c/LL	.	2r	.	2r	.	2r	.	2r	.	2g/	2g/	2g/	2gg\	8c\L	.	2g/	.	2gg\
.	.	.	.	.	16d/	.	.	.	.	.	.	.	.	.	.	.	.	.	.	.	.	.	.
8c\	.	.	.	.	16e-/	.	.	.	.	.	.	.	.	.	.	.	.	.	8c\	.	.	.	.
.	.	.	.	.	16f/JJ	.	.	.	.	.	.	.	.	.	.	.	.	.	.	.	.	.	.
8c\	.	.	4r	.	16g/LL	.	.	.	.	.	.	.	.	.	.	.	.	.	8c\	.	.	.	.
.	.	.	.	.	16f/	.	.	.	.	.	.	.	.	.	.	.	.	.	.	.	.	.	.
8c\J	.	.	.	.	16e-/	.	.	.	.	.	.	.	.	.	.	.	.	.	8c\J	.	.	.	.
.	.	.	.	.	16d/JJ	.	.	.	.	.	.	.	.	.	.	.	.	.	.	.	.	.	.
8c\L	.	.	2r	.	16c/LL	.	4r	.	4r	.	4r	.	4r	.	2r	2r	2r	2r	8c\L	.	2r	.	2r
.	.	.	.	.	16d/	.	.	.	.	.	.	.	.	.	.	.	.	.	.	.	.	.	.
8c\	.	.	.	.	16e-/	.	.	.	.	.	.	.	.	.	.	.	.	.	8c\	.	.	.	.
.	.	.	.	.	16f/JJ	.	.	.	.	.	.	.	.	.	.	.	.	.	.	.	.	.	.
!	!	!	!	!	!LO:LB:g=original	!	!	!	!	!	!	!	!	!	!	!	!	!	!	!	!	!	!
8c\	.	.	.	.	16g\LL	.	8C\	Di-	8G\	di-	8e-\	Di-	8cc\	Di-	.	.	.	.	8c\	.	.	.	.
.	.	.	.	.	16an\	.	.	.	.	.	.	.	.	.	.	.	.	.	.	.	.	.	.
8c\J	.	.	.	.	16bn\	.	8C\	-es	8G\	-es	8e-\	-es	8cc\	-es	.	.	.	.	8c\J	.	.	.	.
.	.	.	.	.	16cc\JJ	.	.	.	.	.	.	.	.	.	.	.	.	.	.	.	.	.	.
=4	=4	=4	=4	=4	=4	=4	=4	=4	=4	=4	=4	=4	=4	=4	=4	=4	=4	=4	=4	=4	=4	=4	=4
8A-\L	.	.	16G/LL	.	4bn\	.	4G\	il-	4d\	il-	4g\	il-	4bn\	il-	4r	4r	4r	4r	8A-\L	.	4r	.	4r
.	.	.	16An/	.	.	.	.	.	.	.	.	.	.	.	.	.	.	.	.	.	.	.	.
8A-\	.	.	16Bn/	.	.	.	.	.	.	.	.	.	.	.	.	.	.	.	8A-\	.	.	.	.
.	.	.	16c/JJ	.	.	.	.	.	.	.	.	.	.	.	.	.	.	.	.	.	.	.	.
8A-\	.	.	16d/LL	.	4r	.	4G\	-la	4d\	-la	4g\	-la	4b\	-la	4g/	4g/	4g/	4gg\	8A-\	.	4g/	.	4gg\
.	.	.	16c/	.	.	.	.	.	.	.	.	.	.	.	.	.	.	.	.	.	.	.	.
8A-\J	.	.	16B/	.	.	.	.	.	.	.	.	.	.	.	.	.	.	.	8A-\J	.	.	.	.
.	.	.	16A/JJ	.	.	.	.	.	.	.	.	.	.	.	.	.	.	.	.	.	.	.	.
8A-\L	.	X 9n	16G/LL	.	2r	.	4r	.	4r	.	4r	.	4r	.	4g/	4g/	4g/	4gg\	8A-\L	.	4g/	.	4gg\
.	.	.	16A/	.	.	.	.	.	.	.	.	.	.	.	.	.	.	.	.	.	.	.	.
8A-\	.	.	16B/	.	.	.	.	.	.	.	.	.	.	.	.	.	.	.	8A-\	.	.	.	.
.	.	.	16c/JJ	.	.	.	.	.	.	.	.	.	.	.	.	.	.	.	.	.	.	.	.
8A-\	.	.	16d/LL	.	.	.	8G\	Sol-	8d\	sal-	8g\	Sal-	8b\	Sol-	4g/	4g/	4g/	4gg\	8A-\	.	4g/	.	4gg\
.	.	.	16en/	.	.	.	.	.	.	.	.	.	.	.	.	.	.	.	.	.	.	.	.
8A-\J	.	.	16f#X/	.	.	.	8G\	-vet	8d\	-vet	8g\	-vet	8b\	-ve	.	.	.	.	8A-\J	.	.	.	.
.	.	.	16g/JJ	.	.	.	.	.	.	.	.	.	.	.	.	.	.	.	.	.	.	.	.
!	!	!	!LO:LB:g=original	!	!	!	!	!	!	!	!LO:LB:g=original	!	!LO:LB:g=original	!	!	!	!	!	!	!	!	!	!
=5	=5	=5	=5	=5	=5	=5	=5	=5	=5	=5	=5||	=5	=5	=5	=5	=5	=5	=5	=5	=5	=5	=5	=5
*	*	*	*	*	*	*	*	*	*	*	*	*	*	*	*	*	*	*	*	*	*2\right	*	*
!	!	!	!	!	!	!	!	!	!	!	!	!	!	!	!	!	!	!LO:TX:a:t=d	!	!	!	!	!
8A-X\L	.	4_ 2-_	4fn/	.	16b-X\LL	.	4.A-X\	sec-	4.d\	Se-	4.f\	se-	4.b-\	Se-	1B-	1b-	1b-	1ff	8A-\L	.	2a-\	.	2dd\
.	.	.	.	.	16cc\	.	.	.	.	.	.	.	.	.	.	.	.	.	.	.	.	.	.
8A-X\	.	.	.	.	16dd\	.	.	.	.	.	.	.	.	.	.	.	.	.	8A-\	.	.	.	.
.	.	.	.	.	16ee-\JJ	.	.	.	.	.	.	.	.	.	.	.	.	.	.	.	.	.	.
8A-X\	.	.	4r	.	16ff\LL	.	.	.	.	.	.	.	.	.	.	.	.	.	8A-\	.	.	.	.
.	.	.	.	.	16ee-\	.	.	.	.	.	.	.	.	.	.	.	.	.	.	.	.	.	.
8A-X\J	.	.	.	.	16dd\	.	8A-\	-lum	8d\	-cu-	8f\	-clum	8b-\	-clum	.	.	.	.	8A-\J	.	.	.	.
.	.	.	.	.	16cc\JJ	.	.	.	.	.	.	.	.	.	.	.	.	.	.	.	.	.	.
8A-\L	.	.	2r	.	16b-/LL	.	4A-\	in	4d\	-lum	4f\	in	4b-\	in	.	.	.	.	8A-\L	.	2a-\	.	2dd\
.	.	X X	.	.	16a-X/	.	.	.	.	.	.	.	.	.	.	.	.	.	.	.	.	.	.
8A-\	.	.	.	.	16g/	.	.	.	.	.	.	.	.	.	.	.	.	.	8A-\	.	.	.	.
.	.	.	.	.	16f/JJ	.	.	.	.	.	.	.	.	.	.	.	.	.	.	.	.	.	.
8A-\	.	.	.	.	16e-/LL	.	4A-\	fa-	4d\	info-	4f\	fa-	4b-\	fa-	.	.	.	.	8A-\	.	.	.	.
.	.	.	.	.	16d/	.	.	.	.	.	.	.	.	.	.	.	.	.	.	.	.	.	.
8A-\J	.	.	.	.	16c/	.	.	.	.	.	.	.	.	.	.	.	.	.	8A-\J	.	.	.	.
.	.	.	.	.	16B-/JJ	.	.	.	.	.	.	.	.	.	.	.	.	.	.	.	.	.	.
!	!	!	!	!	!	!	!LO:LB:g=original	!	!LO:LB:g=original	!	!	!	!	!	!	!	!	!	!	!	!	!	!
=6	=6	=6	=6	=6	=6	=6	=6	=6	=6	=6	=6	=6	=6	=6	=6	=6	=6	=6	=6	=6	=6	=6	=6
8G\L	.	X 6_	16ee-X\LL	.	4e-/	.	4G\	-vil-	4e-\	-vil-	4e-\	-vil-	4ee-\	-vi-	1e-	1g	1ee-	1gg	8G\L	.	2g\	.	2ee-\
.	.	.	16ff\	.	.	.	.	.	.	.	.	.	.	.	.	.	.	.	.	.	.	.	.
8G\	.	.	16gg\	.	.	.	.	.	.	.	.	.	.	.	.	.	.	.	8G\	.	.	.	.
.	.	.	16aa-\JJ	.	.	.	.	.	.	.	.	.	.	.	.	.	.	.	.	.	.	.	.
8G\	.	.	16bb-X\LL	.	4r	.	4G\	-la	4e-\	-la	4e-\	-la	4b-\	-la	.	.	.	.	8G\	.	.	.	.
.	.	.	16aa-\	.	.	.	.	.	.	.	.	.	.	.	.	.	.	.	.	.	.	.	.
8G\J	.	.	16gg\	.	.	.	.	.	.	.	.	.	.	.	.	.	.	.	8G\J	.	.	.	.
.	.	.	16ff\JJ	.	.	.	.	.	.	.	.	.	.	.	.	.	.	.	.	.	.	.	.
8G\L	.	.	16ee-\LL	.	2r	.	4r	.	4r	.	4r	.	4r	.	.	.	.	.	8G\L	.	2g\	.	2ee-\
.	.	X X	16dd\	.	.	.	.	.	.	.	.	.	.	.	.	.	.	.	.	.	.	.	.
8G\	.	.	16cc\	.	.	.	.	.	.	.	.	.	.	.	.	.	.	.	8G\	.	.	.	.
.	.	.	16b-\JJ	.	.	.	.	.	.	.	.	.	.	.	.	.	.	.	.	.	.	.	.
8G\	.	.	16a-\LL	.	.	.	8G\	tes-	8e-\	tes-	8e-\	tes-	8b-\	te-	.	.	.	.	8G\	.	.	.	.
.	.	.	16g\	.	.	.	.	.	.	.	.	.	.	.	.	.	.	.	.	.	.	.	.
8G\J	.	.	16f\	.	.	.	8G\	-te	8e-\	-ta,	8e-\	-te	8b-\	-ste	.	.	.	.	8G\J	.	.	.	.
.	.	.	16e-\JJ	.	.	.	.	.	.	.	.	.	.	.	.	.	.	.	.	.	.	.	.
!LO:LB:g=original	!	!	!	!	!	!	!	!	!	!	!	!	!	!	!	!	!	!LO:LB:g=original	!LO:LB:g=original	!	!	!	!
=7	=7	=7	=7	=7	=7	=7	=7	=7	=7	=7	=7	=7	=7	=7	=7	=7	=7	=7	=7	=7	=7	=7	=7
8A-\L	.	4_ 2_	4B-/	.	16b-\LL	.	4.A-X\	Da-	4.d\	Da-	4.f\	Da-	4.b-\	Da-	1B-	1b-	1b-	1ff	8A-\L	.	2a-\	.	2dd\
.	.	.	.	.	16cc\	.	.	.	.	.	.	.	.	.	.	.	.	.	.	.	.	.	.
8A-\	.	.	.	.	16dd\	.	.	.	.	.	.	.	.	.	.	.	.	.	8A-\	.	.	.	.
.	.	.	.	.	16ee-\JJ	.	.	.	.	.	.	.	.	.	.	.	.	.	.	.	.	.	.
8A-\	.	.	4r	.	16ff\LL	.	.	.	.	.	.	.	.	.	.	.	.	.	8A-\	.	.	.	.
.	.	.	.	.	16ee-\	.	.	.	.	.	.	.	.	.	.	.	.	.	.	.	.	.	.
8A-\J	.	.	.	.	16dd\	.	8A-\	-vid	8d\	-wid	8f\	-vid	8b-\	-vit	.	.	.	.	8A-\J	.	.	.	.
.	.	.	.	.	16cc\JJ	.	.	.	.	.	.	.	.	.	.	.	.	.	.	.	.	.	.
8A-\L	.	.	2r	.	16b-\LL	.	4A-\	cǔm	4d\	cum	4f\	cum	4b-\	cum	.	.	.	.	8A-\L	.	2a-\	.	2dd\
.	.	X X	.	.	16a-\	.	.	.	.	.	.	.	.	.	.	.	.	.	.	.	.	.	.
8A-\	.	.	.	.	16g\	.	.	.	.	.	.	.	.	.	.	.	.	.	8A-\	.	.	.	.
.	.	.	.	.	16f\JJ	.	.	.	.	.	.	.	.	.	.	.	.	.	.	.	.	.	.
8A-\	.	.	.	.	16e-/LL	.	4A-\	si-	4d\	sy-	4f\	si-	4b-\	si-	.	.	.	.	8A-\	.	.	.	.
.	.	.	.	.	16d/	.	.	.	.	.	.	.	.	.	.	.	.	.	.	.	.	.	.
8A-\J	.	.	.	.	16c/	.	.	.	.	.	.	.	.	.	.	.	.	.	8A-\J	.	.	.	.
.	.	.	.	.	16B-/JJ	.	.	.	.	.	.	.	.	.	.	.	.	.	.	.	.	.	.
!	!	!	!	!	!	!	!	!	!	!	!	!	!	!	!	!	!	!	!	!	!LO:LB:g=original	!	!
=8	=8	=8	=8	=8	=8	=8	=8	=8	=8	=8	=8	=8	=8	=8	=8	=8	=8	=8	=8	=8	=8	=8	=8
8G\L	.	X 6_	16ee-\LL	.	4e-/	.	4G\	-bil-	4e-\	-byl-	4e-\	-bil-	4ee-\	-bil-	1e-	1g	1ee-	1gg	8G\L	.	2g/	.	2ee-\
.	.	.	16ff\	.	.	.	.	.	.	.	.	.	.	.	.	.	.	.	.	.	.	.	.
8G\	.	.	16gg\	.	.	.	.	.	.	.	.	.	.	.	.	.	.	.	8G\	.	.	.	.
.	.	.	16aa-\JJ	.	.	.	.	.	.	.	.	.	.	.	.	.	.	.	.	.	.	.	.
8G\	.	.	16bb-X\LL	.	4r	.	4G\	-la	4e-\	-la,	4e-\	-la	4b-\	-la	.	.	.	.	8G\	.	.	.	.
.	.	.	16aa-\	.	.	.	.	.	.	.	.	.	.	.	.	.	.	.	.	.	.	.	.
8G\J	.	.	16gg\	.	.	.	.	.	.	.	.	.	.	.	.	.	.	.	8G\J	.	.	.	.
.	.	X X	16ff\JJ	.	.	.	.	.	.	.	.	.	.	.	.	.	.	.	.	.	.	.	.
8G\L	.	.	16ee-\LL	.	2r	.	4r	.	4r	.	4r	.	4r	.	.	.	.	.	8G\L	.	2g/	.	2ee-\
.	.	.	16dd\	.	.	.	.	.	.	.	.	.	.	.	.	.	.	.	.	.	.	.	.
8G\	.	.	16cc\	.	.	.	.	.	.	.	.	.	.	.	.	.	.	.	8G\	.	.	.	.
.	.	.	16b-\JJ	.	.	.	.	.	.	.	.	.	.	.	.	.	.	.	.	.	.	.	.
8G\	.	.	16a-\LL	.	.	.	8G\	quan-	8e-\	quan-	8e-\	quan-	8b-\	quam-	.	.	.	.	8G\	.	.	.	.
.	.	.	16g\	.	.	.	.	.	.	.	.	.	.	.	.	.	.	.	.	.	.	.	.
8G\J	.	.	16f\	.	.	.	8G\	-tus	8f\	-tus	8e-\	-tus	8b-\	-tus	.	.	.	.	8G\J	.	.	.	.
.	.	.	16e-\JJ	.	.	.	.	.	.	.	.	.	.	.	.	.	.	.	.	.	.	.	.
!	!	!	!	!	!LO:LB:g=original	!	!	!	!	!	!	!	!	!	!	!	!	!	!	!	!	!	!
!	!	!	!	!	!	!	!	!	!	!	!	!	!	!	!	!LO:LB:g=original	!	!	!	!	!	!	!
=9	=9	=9	=9	=9	=9	=9	=9	=9	=9	=9	=9	=9	=9	=9	=9	=9	=9	=9	=9	=9	=9	=9	=9
!	!	!	!	!	!	!	!	!	!	!	!	!	!	!	!LO:TX:a:t=2	!LO:TX:a:t=2	!LO:TX:a:t=2	!LO:TX:a:t=2	!	!	!LO:TX:a:t=2	!	!LO:TX:a:t=2
4.G\	.	5- 7-	4.dd-X\	.	16f-X/LL	.	4.G\	tre-	4.B-\	tre-	4.f-\	tre-	4.dd-X\	tre-	0r	0r	0r	0r	4.G\	.	0r	.	0r
.	.	.	.	.	16f-/	.	.	.	.	.	.	.	.	.	.	.	.	.	.	.	.	.	.
.	.	.	.	.	16f-/	.	.	.	.	.	.	.	.	.	.	.	.	.	.	.	.	.	.
.	.	.	.	.	16f-/JJ	.	.	.	.	.	.	.	.	.	.	.	.	.	.	.	.	.	.
.	.	.	.	.	16f-/LL	.	.	.	.	.	.	.	.	.	.	.	.	.	.	.	.	.	.
.	.	.	.	.	16f-/	.	.	.	.	.	.	.	.	.	.	.	.	.	.	.	.	.	.
8G\	.	X 6	8dd-\	.	16en/	.	8G\	-mor	8B-\	-mor	8e-\	-mor	8dd-\	-mor	.	.	.	.	8G\	.	.	.	.
.	.	.	.	.	16e/JJ	.	.	.	.	.	.	.	.	.	.	.	.	.	.	.	.	.	.
!	!	!	!LO:LB:g=original	!	!	!	!	!	!	!	!	!	!	!	!	!	!	!	!	!	!	!	!
8.G\L	.	5- 7-	8.dd-\L	.	16f-/LL	.	4G\	est	4d\	eſt	8f-\L	est	4dd-\	et	.	.	.	.	8.G\L	.	.	.	.
.	.	.	.	.	16f-/	.	.	.	.	.	.	.	.	.	.	.	.	.	.	.	.	.	.
.	.	.	.	.	16e/	.	.	.	.	.	8e-\J	.	.	.	.	.	.	.	.	.	.	.	.
16G\K	.	X 5	16dd-\K	.	16e/JJ	.	.	.	.	.	.	.	.	.	.	.	.	.	16G\K	.	.	.	.
8.G\	.	X 7-	8.dd-\	.	16f-/LL	.	4G\	fu-	4d\	fu-	8f-\L	fa-	4dd-\	fu-	.	.	.	.	8.G\	.	.	.	.
.	.	.	.	.	16f-/	.	.	.	.	.	.	.	.	.	.	.	.	.	.	.	.	.	.
.	.	.	.	.	16e/	.	.	.	.	.	8e-\J	.	.	.	.	.	.	.	.	.	.	.	.
16G\Jk	.	X 6	16dd-\Jk	.	16e/JJ	.	.	.	.	.	.	.	.	.	.	.	.	.	16G\Jk	.	.	.	.
!	!	!	!	!	!	!	!	!	!	!	!LO:LB:g=original	!	!LO:LB:g=original	!	!	!	!	!	!	!	!	!	!
=10	=10	=10	=10	=10	=10	=10	=10	=10	=10	=10	=10||	=10	=10	=10	=10	=10	=10	=10	=10	=10	=10	=10	=10
4G\	.	X 6n	4dd\	.	4en/	.	4G\	-tur-	4d\	-tu-	4en\	-tu-	4dd\	-tu-	.	.	.	.	4G\	.	.	.	.
4A-\	.	3 6	4cc\	.	4fn/	.	4A-\	-rus	4c-X\	-rus,	4f\	-nus	4cc\	-rus	.	.	.	.	4A-\	.	.	.	.
4r	.	.	4r	.	4r	.	2r	.	2r	.	4r	.	4r	.	.	.	.	.	4r	.	.	.	.
4A-\	.	.	4a-X/	.	4cc\	.	.	.	.	.	8a-\	quan-	8b-\	quam-	.	.	.	.	4A-\	.	.	.	.
.	.	.	.	.	.	.	.	.	.	.	8a-\	-do	8b-\	-de	.	.	.	.	.	.	.	.	.
!	!	!	!	!	!	!	!LO:LB:g=original	!	!LO:LB:g=original	!	!	!	!	!	!	!	!	!	!	!	!	!	!
=11	=11	=11	=11	=11	=11	=11	=11	=11	=11	=11	=11	=11	=11	=11	=11	=11	=11	=11	=11	=11	=11	=11	=11
!	!	!	!	!LO:DY:a:t=po	!	!LO:DY:a:t=pio	!LO:TX:a:t=2.	!	!LO:TX:a:t=2.	!	!	!	!	!	!	!	!	!	!	!	!	!	!
!	!	!	!	!	!	!	!	!	!	!	!	!	!	!	!	!	!	!LO:TX:a:i:t=Solo:color=grey	!	!	!	!	!
2B-\	.	.	4.g/	p	4.b-X\	p	0r	.	0r	.	4.g\	ju-	4.b-\	Ju-	2e-/	2g/	4.gg\	4.bb-\	2B-\	p	4.gg\	.	4.bb-\
.	.	.	8e-/	.	8g\	.	.	.	.	.	8e-X\	-dex	8g\	-dex	.	.	8ee-\	8gg\	.	.	8ee-\	.	8gg\
2BB-/	.	.	8g/L	.	8b-\L	.	.	.	.	.	8g\L	est	8b-\L	est	4B-/	4b-/	8gg\L	8bb-\L	2BB-/	.	8gg\L	.	8bb-\L
.	.	.	8f/	.	8a-\	.	.	.	.	.	8fn\J	.	8a-\	.	.	.	8ff\	8aa-\	.	.	8ff\	.	8aa-\
.	.	.	8e-/	.	8g\	.	.	.	.	.	8e-\L	ver-	8g\	ven-	4B-/	4b-/	8ee-\	8gg\	.	.	8ee-\	.	8gg\
.	.	.	8d/J	.	8f\J	.	.	.	.	.	8d\J	.	8f\J	.	.	.	8dd\J	8ff\J	.	.	8b-\J	.	8ff\J
=12	=12	=12	=12	=12	=12	=12	=12	=12	=12	=12	=12	=12	=12	=12	=12	=12	=12	=12	=12	=12	=12	=12	=12
2E-\	.	.	2e-/	.	2e-/	.	.	.	.	.	4e-\	-tu-	4e-/	-tu-	2e-/	2g/	2g/	2ee-\	2E-\	.	2g/	.	2ee-\
.	.	.	.	.	.	.	.	.	.	.	4e-\	-rus	4e-/	-rus	.	.	.	.	.	.	.	.	.
!	!	!	!	!	!	!LO:DY:a:t=fo	!	!	!	!	!	!	!	!	!	!	!	!	!	!	!	!	!
2r	.	.	2r	.	16e-/LL	f	.	.	.	.	2r	.	2r	.	2r	2r	2r	2r	2r	.	2r	.	2r
.	.	.	.	.	16f/	.	.	.	.	.	.	.	.	.	.	.	.	.	.	.	.	.	.
.	.	.	.	.	16g/	.	.	.	.	.	.	.	.	.	.	.	.	.	.	.	.	.	.
.	.	.	.	.	16a-/JJ	.	.	.	.	.	.	.	.	.	.	.	.	.	.	.	.	.	.
.	.	.	.	.	16b-\LL	.	.	.	.	.	.	.	.	.	.	.	.	.	.	.	.	.	.
.	.	.	.	.	16cc\	.	.	.	.	.	.	.	.	.	.	.	.	.	.	.	.	.	.
.	.	.	.	.	16dd\	.	.	.	.	.	.	.	.	.	.	.	.	.	.	.	.	.	.
.	.	.	.	.	16ee-\JJ	.	.	.	.	.	.	.	.	.	.	.	.	.	.	.	.	.	.
!	!	!	!	!	!	!	!	!	!	!	!	!	!	!	!	!	!	!	!	!	!	!	!LO:LB:g=original
!	!	!	!	!	!	!	!	!	!	!	!	!	!	!	!LO:LB:g=original	!	!	!	!	!	!	!	!
=13	=13	=13	=13	=13	=13	=13	=13	=13	=13	=13	=13	=13	=13	=13	=13	=13	=13	=13	=13	=13	=13	=13	=13
!	!	!	!	!LO:DY:a:t=fo	!	!	!	!	!	!	!	!	!	!	!LO:TX:a:t=4.	!LO:TX:a:t=4	!LO:TX:a:t=4.	!LO:TX:a:t=4	!	!	!LO:TX:a:t=4	!	!LO:TX:a:t=4
4.G\	.	5- 7-	16f/LL	f	4.dd-X\	.	4.G\	Cǔn-	4.f-\	Cun-	4.b-\	Cun-	4.dd-X\	Cun-	00r	00r	00r	00r	4.G\	.	00r	.	00r
.	.	.	16e-X/	.	.	.	.	.	.	.	.	.	.	.	.	.	.	.	.	.	.	.	.
.	.	.	16f/	.	.	.	.	.	.	.	.	.	.	.	.	.	.	.	.	.	.	.	.
.	.	.	16e-/JJ	.	.	.	.	.	.	.	.	.	.	.	.	.	.	.	.	.	.	.	.
.	.	.	16f/LL	.	.	.	.	.	.	.	.	.	.	.	.	.	.	.	.	.	.	.	.
.	.	.	16f/	.	.	.	.	.	.	.	.	.	.	.	.	.	.	.	.	.	.	.	.
8G\	.	X 6	16e-/	.	8dd-\	.	8G\	-cta	8e-X\	-cta	8b-\	-cta	8dd-\	-cta	.	.	.	.	8G\	.	.	.	.
.	.	.	16e-/JJ	.	.	.	.	.	.	.	.	.	.	.	.	.	.	.	.	.	.	.	.
8.G\L	.	X 7-	16f/LL	.	8dd-\L	.	8G\	stri-	8f-\	Stri-	8b-\	stri-	8dd-\	stri-	.	.	.	.	8.G\L	.	.	.	.
.	.	.	16e-/	.	.	.	.	.	.	.	.	.	.	.	.	.	.	.	.	.	.	.	.
.	.	.	16f/	.	8dd-\	.	8G\	-cte	8e-\	-cte	8b-\	-cte	8dd-\	-cte	.	.	.	.	.	.	.	.	.
16G\K	.	X 6	16e-/JJ	.	.	.	.	.	.	.	.	.	.	.	.	.	.	.	16G\K	.	.	.	.
8.G\	.	X 7-	16f/LL	.	8dd-\	.	8G\	dis-	8f-\	Dis-	8b-\	dis-	8dd-\	dis-	.	.	.	.	8.G\	.	.	.	.
.	.	.	16f/	.	.	.	.	.	.	.	.	.	.	.	.	.	.	.	.	.	.	.	.
.	.	.	16e-/	.	8dd-\J	.	8G\	-cu-	8e-\	-cu,	8b-\	-cu-	8dd-\	-cur-	.	.	.	.	.	.	.	.	.
16G\Jk	.	X 6	16e-/JJ	.	.	.	.	.	.	.	.	.	.	.	.	.	.	.	16G\Jk	.	.	.	.
!	!	!	!	!	!LO:LB:g=original	!	!	!	!	!	!	!	!	!	!	!	!	!	!	!	!	!	!
!LO:LB:g=original	!	!	!	!	!	!	!	!	!	!	!	!	!	!	!	!	!	!	!LO:LB:g=original	!	!	!	!
=14	=14	=14	=14	=14	=14	=14	=14	=14	=14	=14	=14	=14	=14	=14	=14	=14	=14	=14	=14	=14	=14	=14	=14
4A-\	.	X 6	4en/	.	4dd\	.	4G\	-su-	4en\	su-	4b-\	-su-	4dd\	-su-	.	.	.	.	4G\	.	.	.	.
4G\	.	X 4_	4e/	.	4cc\	.	4G\	-rus	4e\	-rus,	4b-\	-rus	4cc\	-rus	.	.	.	.	4G\	.	.	.	.
!	!	!	!	!	!	!	!	!	!	!	!	!	!LO:LB:g=original	!	!	!	!	!	!	!	!	!	!
4r	.	.	4r	.	4ccc\	.	4r	.	4r	.	4r	.	4r	.	.	.	.	.	4r	.	.	.	.
4G\	.	.	4e/	.	4cc\	.	8G\	cǔn-	8e-\	Con-	8b-\	cun-	8cc\	cun-	.	.	.	.	4G\	.	.	.	.
.	.	.	.	.	.	.	8G\	-ta	8e-\	-cta	8b-\	-cta	8cc\	-cta	.	.	.	.	.	.	.	.	.
=15	=15	=15	=15	=15	=15	=15	=15	=15	=15	=15	=15||	=15	=15	=15	=15	=15	=15	=15	=15	=15	=15	=15	=15
4B-\	.	.	4g/	.	4cc\	.	4B-\	stri-	4e-\	Stri-	4g\	stri-	4cc\	stri-	.	.	.	.	4B-\	.	.	.	.
!	!	!	!	!	!	!	!LO:N:vis=8	!	!	!	!	!	!	!	!	!	!	!	!	!	!	!	!
4A-X\	.	X 6	4f/	.	4cc\	.	4A-X\	-cte	4f\	-cte,	4f\	-cte	4cc\	-cte	.	.	.	.	4A-X\	.	.	.	.
4r	.	.	4r	.	4ccc\	.	4r	.	4r	.	4r	.	4r	.	.	.	.	.	4r	.	.	.	.
*	*	*	*	*	*	*	*	*	*	*ij	*	*	*	*	*	*	*	*	*	*	*	*	*
4A-\	.	X 6	4f/	.	4cc\	.	8A-X\	cǔn-	8f\	Con-	8f\	dis-	8cc\	cun-	.	.	.	.	4A-\	.	.	.	.
.	.	.	.	.	.	.	8A-\	-cta	8f\	-cta	8f\	-cu-	8cc\	-cta	.	.	.	.	.	.	.	.	.
!	!	!	!LO:LB:g=original	!	!	!	!LO:LB:g=original	!	!	!	!	!	!	!	!	!	!	!	!	!	!	!	!
=16	=16	=16	=16	=16	=16	=16	=16	=16	=16	=16	=16	=16	=16	=16	=16	=16	=16	=16	=16	=16	=16	=16	=16
4An\	.	5 6	4f#X/	.	4ee-\	.	4A-\	stri-	4c\	Stri-	4f#X\	-su-	4ee-\	stri-	.	.	.	.	4An\	.	.	.	.
4c\	.	6n 4n	4f#/	.	4an/	.	4c\	-cte	4e-X\	-cte,	4f#\	-rus	4an\	-cte	.	.	.	.	4c\	.	.	.	.
*	*	*	*	*	*	*	*	*	*	*Xij	*	*	*	*	*	*	*	*	*	*	*	*	*
2r	.	.	2r	.	2r	.	2r	.	2r	.	2r	.	2r	.	.	.	.	.	2r	.	.	.	.
!	!	!	!	!	!	!	!	!	!LO:LB:g=original	!	!	!	!	!	!	!	!	!	!	!	!	!	!
!	!	!	!	!	!	!	!	!	!	!	!	!	!	!	!	!	!LO:LB:g=original	!	!	!	!	!	!
=17	=17	=17	=17	=17	=17	=17	=17	=17	=17	=17	=17	=17	=17	=17	=17	=17	=17	=17	=17	=17	=17	=17	=17
!	!	!	!	!LO:DY:a:t=pio	!	!LO:DY:a:t=pio	!	!	!LO:TX:a:t=1.	!	!	!	!	!	!	!	!	!	!	!	!	!	!
2B-\	.	.	4.g/	p	4.b-\	p	1r	.	1r	.	4.g\	stri-	4.b-X\	stri-	2e-/	2g/	4.gg\	4.bb-\	2B-\	.	4.gg\	.	4.bb-\
.	.	.	8e-X/	.	8g\	.	.	.	.	.	8e-\	-cte	8g\	-cte	.	.	8ee-\	8gg\	.	.	8ee-\	.	8gg\
2BB-/	p	.	8g/L	.	8b-/L	.	.	.	.	.	8g\	dis-	8b-\L	dis-	4B-/	4b-/	8gg\L	8bb-\L	2BB-/	.	8gg\L	.	8bb-\L
.	.	.	8f/	.	8a-X/	.	.	.	.	.	8fn\	-cu-	8a-\	.	.	.	8ff\	8aa-\	.	.	8ff\	.	8aa-\
.	.	.	8e-/	.	8g/	.	.	.	.	.	(8e-\L	-su-	8g\	-cur-	4B-/	4b-/	8ee-\	8gg\	.	.	8ee-\	.	8gg\
.	.	.	8d/J	.	8f/J	.	.	.	.	.	8d\J)	.	8f\J	.	.	.	8dd\J	8ff\J	.	.	8b-\J	.	8ff\J
=18	=18	=18	=18	=18	=18	=18	=18	=18	=18	=18	=18	=18	=18	=18	=18	=18	=18	=18	=18	=18	=18	=18	=18
!	!	!	!	!LO:DY:a	!	!	!	!	!	!	!	!	!	!	!	!	!	!	!	!	!	!	!
4E-\	.	.	4e-/	pp	4e-/	.	2r	.	2r	.	4e-\	-rus	4e-/	-rus	4e-/	4g/	4g/	4ee-\	4E-\	.	4b-\	p	4ee-\
4r	.	.	4e-/	.	4g/	.	.	.	.	.	4r	.	4r	.	4e-/	4g/	4ee-\	4gg\	4r	.	4ee-\	.	4gg\
8E-'\L	.	.	4e-/	.	4g/	.	8E-\L	Tu-	4e-\	tu-	4g\	tu-	2r	.	4e-/	4g/	4ee-\	4gg\	8E-\L	.	4ee-\	.	4gg\
8F'\	.	.	.	.	.	.	8F\J	.	.	.	.	.	.	.	.	.	.	.	8F\	.	.	.	.
8G'\	.	.	4e-/	.	4g/	.	8G\L	-ba	4e-\	-ba	4g\	-ba	.	.	4e-/	4g/	4ee-\	4gg\	8G\	.	4ee-\	.	4gg\
8A-'\J	.	.	.	.	.	.	8A-X\J	.	.	.	.	.	.	.	.	.	.	.	8A-\J	.	.	.	.
=19	=19	=19	=19	=19	=19	=19	=19	=19	=19	=19	=19	=19	=19	=19	=19	=19	=19	=19	=19	=19	=19	=19	=19
!	!	!	!	!	!	!	!	!	!	!	!	!	!LO:TX:a:t=1	!	!	!	!	!	!	!	!	!	!
4B-\	.	.	4e-/	.	4g/	.	4B-\	mi-	4e-\	mi-	4g\	mi-	1r	.	4e-/yy	4g/	4ee-\	4gg\	4B-\	.	4ee-\	.	4gg\
4Bn\	.	.	4e-/	.	4g/	.	4Bn\	-rum	4e-\	-rum	4g\	-rum	.	.	4e-/yy	4g/	4ee-\	4gg\	4Bn\	.	4ee-\	.	4gg\
4c\	.	.	4e-/	.	4g/	.	4c\	spar-	4e-\	ſpar-	4g\	Span-	.	.	4e-/yy	4g/	4ee-\	4gg\	4c\	.	4ee-\	.	4gg\
4An\	.	.	4e-/	.	4g/	.	4An\	-gent	4e-\	-gen-	4g\	-gens	.	.	4e-/yy	4g/	4ee-\	4gg\	4An\	.	4ee-\	.	4gg\
!	!	!	!	!	!	!	!	!	!	!	!LO:LB:g=original	!	!	!	!	!	!	!	!	!	!	!	!
!LO:LB:g=original	!	!	!	!	!	!	!	!	!	!	!	!	!	!	!	!	!	!LO:LB:g=original	!	!	!	!	!
=20	=20	=20	=20	=20	=20	=20	=20	=20	=20	=20	=20||	=20	=20	=20	=20	=20	=20	=20	=20	=20	=20	=20	=20
!	!	!	!	!LO:DY:a:t=for	!	!	!	!	!	!	!	!	!	!	!	!	!	!	!	!	!	!LO:DY:b:rj	!
4B-X\	.	6 4	4e-/	f	4g/	.	4B-X\	so-	4e-\	-so-	4g\	o-	4ee-\	Spar-	4e-/	4g/	4ee-\	4gg\	4B-X\	.	4dd\	f	4gg\
4BB-/	.	X 5	4d/	.	4f/	.	4BB-/	-num	4d\	-rum	4f\	-num	4dd\	-gens	4B-/	4b-/	4b-/	4gg\	4BB-/	.	4dd\	.	4ff\
8E-'\L	.	.	4e-/	.	4g/	.	8E-\L	per	4e-\	per	4g\	per	2r	.	4e-/	4g/	4ee-\	4gg\	8E-\L	.	4ee-\	p	4gg\
8F'\	.	.	.	.	.	.	8F\J	.	.	.	.	.	.	.	.	.	.	.	8F\	.	.	.	.
8G'\	.	.	4e-/	.	4g/	.	8G\L	se-	4e-\	se-	4g\	se-	.	.	4e-/	4g/	4ee-\	4gg\	8G\	.	4ee-\	.	4gg\
8A-'\J	.	.	.	.	.	.	8A-\J	.	.	.	.	.	.	.	.	.	.	.	8A-\J	.	.	.	.
!	!	!	!	!	!	!	!LO:LB:g=original	!	!	!	!	!	!LO:LB:g=original	!	!	!	!	!	!	!	!	!	!
!	!	!	!	!	!	!	!	!	!	!	!	!	!	!	!	!	!	!	!LO:LB:g=original	!	!LO:LB:g=original	!	!
=21	=21	=21	=21	=21	=21	=21	=21	=21	=21	=21	=21	=21	=21	=21	=21	=21	=21	=21	=21	=21	=21	=21	=21
!	!	!	!	!LO:DY:a:t=po	!	!	!	!	!	!	!	!	!LO:TX:a:t=1	!	!	!	!	!	!	!	!	!	!
4B-\	.	.	4e-/	p	4g/	.	4B-\	-pul-	4e-\	-pul-	4g\	-pul-	1r	.	4e-/	4g/	4ee-\	4gg\	4B-\	.	4ee-\	.	4gg\
4Bn\	.	.	4e-/	.	4g/	.	4Bn\	-chra	4e-\	-chra	4g\	-chra	.	.	4e-/	4g/	4ee-\	4gg\	4Bn\	.	4ee-\	.	4gg\
4c\	.	.	4e-/	.	4g/	.	4c\	re-	4e-\	re-	4g\	re-	.	.	4e-/	4g/	4ee-\	4gg\	4c\	.	4ee-\	.	4gg\
4An\	.	.	4e-/	.	4g/	.	4An\	-gi-	4e-\	-gi-	4g\	-gi-	.	.	4e-/	4g/	4ee-\	4gg\	4An\	.	4ee-\	.	4gg\
!	!	!	!	!	!LO:LB:g=original	!	!	!	!	!	!	!	!	!	!	!	!	!	!	!	!	!	!
=22	=22	=22	=22	=22	=22	=22	=22	=22	=22	=22	=22	=22	=22	=22	=22	=22	=22	=22	=22	=22	=22	=22	=22
4B-X\	.	6 4	4e-/	.	4g/	.	4B-X\	-o-	4e-\	-o-	4g\	-o-	4ee-\	So-	4e-/	4g/	4ee-\	4gg\	4B-X\	.	4ee-\	f	4gg\
4BB-/	.	5 3	4d/	.	4f/	.	4BB-/	-num	4d\	-num,	4f\	-nem	4dd\	-num	4B-/	4b-/	4b-/	4ff\	4BB-/	.	4dd\	.	4ff\
*	*	*	*	*	*2\right	*	*	*	*	*	*	*	*	*	*	*	*	*	*	*	*	*	*
8E-\L	.	8_ 3_	2g/	.	2ee-\	.	8E-\L	co-	2r	.	4g\	co-	4ee-\	go-	2r	2r	2r	2r	8E-\L	.	2r	.	2r
8F\	.	.	.	.	.	.	8F\	.	.	.	.	.	.	.	.	.	.	.	8F\	.	.	.	.
8G\	.	.	.	.	.	.	8G\	.	.	.	4g\	-jet	4ee-\	-get	.	.	.	.	8G\	.	.	.	.
8A-\J	.	.	.	.	.	.	8A-\J	-get	.	.	.	.	.	.	.	.	.	.	8A-\J	.	.	.	.
!	!	!	!	!	!	!	!	!	!	!	!	!	!	!	!	!LO:LB:g=original	!	!	!	!	!	!	!
=23	=23	=23	=23	=23	=23	=23	=23	=23	=23	=23	=23	=23	=23	=23	=23	=23	=23	=23	=23	=23	=23	=23	=23
!	!	!	!	!	!	!	!	!	!LO:TX:a:t=1.	!	!	!	!	!	!LO:TX:a:t=1.	!LO:TX:a:t=1.	!LO:TX:a:t=1.	!	!	!	!LO:TX:a:t=1	!	!LO:TX:a:t=1
4B-X\	.	4 5_	2f/	.	4ee-\	.	4B-\	om-	1r	.	4fn\	om-	4ee-\	om-	1r	1r	1r	1r	4B-X\	.	1r	.	1r
4BB-/	.	3 X	.	.	2dd\	.	4BB-/	-nes	.	.	4f\	-nes	4dd\	-nes	.	.	.	.	4BB-/	.	.	.	.
8E-\L	.	X 9	2e-X/	.	.	.	8C/L	an-	.	.	4e-\	an-	4dd\	an-	.	.	.	.	8E-\L	.	.	.	.
8F\	.	.	.	.	.	.	8D/J	.	.	.	.	.	.	.	.	.	.	.	8F\	.	.	.	.
8G\	.	X 6	.	.	4cc\	.	8E-\L	-the	.	.	4e-\	-te	4cc\	-te	.	.	.	.	8G\	.	.	.	.
8A-\J	.	.	.	.	.	.	8F\J	.	.	.	.	.	.	.	.	.	.	.	8A-\J	.	.	.	.
!	!	!	!	!	!	!	!	!	!	!	!	!	!	!	!	!	!	!	!	!	!	!	!LO:LB:g=original
=24	=24	=24	=24	=24	=24	=24	=24	=24	=24	=24	=24	=24	=24	=24	=24	=24	=24	=24	=24	=24	=24	=24	=24
4G\	.	4 5	2d/	.	4cc\	.	4G\	thro-	2r	.	4d\	tro-	4cc\	tre-	2r	2r	2r	2r	4G\	.	2r	.	2r
4GG/	.	X 3n	.	.	4bn\	.	4GG/	-num	.	.	4d\	-num	4bn\	-num	.	.	.	.	4GG/	.	.	p	.
*	*	*	*	*	*tremolo	*	*	*	*	*	*	*	*	*	*	*	*	*	*	*	*	*	*
8A-X\L	.	4- 2	16d/LL	.	8b-X\L	.	4A-X\	la-	4d\	La-	4f\	la-	4b-X\	la-	2B-/	2b-/	2b-/	2ff\	8A-X\L	.	2dd\	.	2ff\
.	.	.	16e-X/	.	.	.	.	.	.	.	.	.	.	.	.	.	.	.	.	.	.	.	.
8A-X\	.	.	16f/	.	8b-X\	.	.	.	.	.	.	.	.	.	.	.	.	.	8A-X\	.	.	.	.
.	.	.	16e-/JJ	.	.	.	.	.	.	.	.	.	.	.	.	.	.	.	.	.	.	.	.
8A-X\	.	.	16g/LL	.	8b-X\	.	4A-\	-chri-	4d\	-chri,	4f\	-chri-	4b-\	-chri-	.	.	.	.	8A-X\	.	.	.	.
.	.	.	16f/	.	.	.	.	.	.	.	.	.	.	.	.	.	.	.	.	.	.	.	.
8A-X\J	.	.	16e-/	.	8b-X\J	.	.	.	.	.	.	.	.	.	.	.	.	.	8A-X\J	.	.	.	.
.	.	.	16d/JJ	.	.	.	.	.	.	.	.	.	.	.	.	.	.	.	.	.	.	.	.
!LO:LB:g=original	!	!	!LO:LB:g=original	!	!	!	!LO:LB:g=original	!	!LO:LB:g=original	!	!	!	!	!	!	!	!	!	!	!	!	!	!
=25	=25	=25	=25	=25	=25	=25	=25	=25	=25	=25	=25	=25	=25	=25	=25	=25	=25	=25	=25	=25	=25	=25	=25
8G\L	.	X 6	16e-/LL	.	8b-\L	.	4G\	-mo-	4e-\	mo-	4e-\	-mo-	8ee-\L	-mo-	2e-/	2g/	2ee-\	2gg\	8G\L	.	2ee-\	.	2gg\
.	.	.	16f/	.	.	.	.	.	.	.	.	.	.	.	.	.	.	.	.	.	.	.	.
8G\	.	.	16g/	.	8b-\	.	.	.	.	.	.	.	8b-\J	.	.	.	.	.	8G\	.	.	.	.
.	.	.	16f/JJ	.	.	.	.	.	.	.	.	.	.	.	.	.	.	.	.	.	.	.	.
8G\	.	.	16a-X/LL	.	8b-\	.	4G\	-sa	4e-\	-sa	4e-\	-sa	4b-\	-sa	.	.	.	.	8G\	.	.	.	.
.	.	.	16g/	.	.	.	.	.	.	.	.	.	.	.	.	.	.	.	.	.	.	.	.
8G\J	.	.	16f/	.	8b-\J	.	.	.	.	.	.	.	.	.	.	.	.	.	8G\J	.	.	.	.
.	.	.	16e-/JJ	.	.	.	.	.	.	.	.	.	.	.	.	.	.	.	.	.	.	.	.
8A-\L	.	4 2	16d/LL	.	8b-\L	.	4A-\	di-	4d\	di-	4f\	di-	4b-\	di-	2B-/	2b-/	2b-/	2ff\	8A-\L	.	2dd\	.	2ff\
.	.	.	16e-/	.	.	.	.	.	.	.	.	.	.	.	.	.	.	.	.	.	.	.	.
8A-\	.	.	16f/	.	8b-\	.	.	.	.	.	.	.	.	.	.	.	.	.	8A-\	.	.	.	.
.	.	.	16e-/JJ	.	.	.	.	.	.	.	.	.	.	.	.	.	.	.	.	.	.	.	.
8A-\	.	.	16g/LL	.	8b-\	.	4A-\	-es	4d\	-es,	4f\	-es	4b-\	-es	.	.	.	.	8A-\	.	.	.	.
.	.	.	16f/	.	.	.	.	.	.	.	.	.	.	.	.	.	.	.	.	.	.	.	.
8A-\J	.	.	16e-/	.	8b-\J	.	.	.	.	.	.	.	.	.	.	.	.	.	8A-\J	.	.	.	.
.	.	.	16d/JJ	.	.	.	.	.	.	.	.	.	.	.	.	.	.	.	.	.	.	.	.
!	!	!	!	!	!	!	!	!	!	!	!LO:LB:g=original	!	!	!	!	!	!	!	!	!	!	!	!
=26	=26	=26	=26	=26	=26	=26	=26	=26	=26	=26	=26||	=26	=26	=26	=26	=26	=26	=26	=26	=26	=26	=26	=26
8G\L	.	X 6	16e-/LL	.	8b-\L	.	4G\	il-	4e-\	il-	4e-\	il-	8ee-\L	il-	2e-/	2g/	2ee-\	2gg\	8G\L	.	2ee-\	.	2gg\
.	.	.	16f/	.	.	.	.	.	.	.	.	.	.	.	.	.	.	.	.	.	.	.	.
8G\	.	.	16g/	.	8b-\	.	.	.	.	.	.	.	8b-\J	-la	.	.	.	.	8G\	.	.	.	.
.	.	.	16f/JJ	.	.	.	.	.	.	.	.	.	.	.	.	.	.	.	.	.	.	.	.
8G\	.	.	16a-/LL	.	8b-\	.	4G\	-la	4e-\	-la	4e-\	-la	4b-\	qǔi	.	.	.	.	8G\	.	.	.	.
.	.	.	16g/	.	.	.	.	.	.	.	.	.	.	.	.	.	.	.	.	.	.	.	.
8G\J	.	.	16f/	.	8b-\J	.	.	.	.	.	.	.	.	.	.	.	.	.	8G\J	.	.	.	.
.	.	.	16e-/JJ	.	.	.	.	.	.	.	.	.	.	.	.	.	.	.	.	.	.	.	.
8A-\L	.	4 2	16d/LL	.	8b-\L	.	4A-\	qwa	4d\	qua-	4f\	que-	4b-\	re-	2B-/	2b-/	2b-/	2ff\	8A-\L	.	2dd\	.	2ff\
.	.	.	16e-/	.	.	.	.	.	.	.	.	.	.	.	.	.	.	.	.	.	.	.	.
8A-\	.	.	16f/	.	8b-\	.	.	.	.	.	.	.	.	.	.	.	.	.	8A-\	.	.	.	.
.	.	.	16e-/JJ	.	.	.	.	.	.	.	.	.	.	.	.	.	.	.	.	.	.	.	.
8A-\	.	.	16g/LL	.	8b-\	.	4A-\	re-	4d\	-re	4f\	-ure	4b-\	-Sur-	.	.	.	.	8A-\	.	.	.	.
.	.	.	16f/	.	.	.	.	.	.	.	.	.	.	.	.	.	.	.	.	.	.	.	.
8A-\J	.	.	16e-/	.	8b-\J	.	.	.	.	.	.	.	.	.	.	.	.	.	8A-\J	.	.	.	.
.	.	.	16d/JJ	.	.	.	.	.	.	.	.	.	.	.	.	.	.	.	.	.	.	.	.
!	!	!	!	!	!	!	!	!	!	!	!	!	!LO:LB:g=original	!	!	!	!	!	!	!	!	!	!
!	!	!	!	!	!	!	!	!	!	!	!	!	!	!	!	!	!LO:LB:g=original	!	!	!	!	!	!
=27	=27	=27	=27	=27	=27	=27	=27	=27	=27	=27	=27	=27	=27	=27	=27	=27	=27	=27	=27	=27	=27	=27	=27
*	*	*	*tremolo	*	*	*	*	*	*	*	*	*	*	*	*	*	*	*	*	*	*	*	*
8G\L	.	X 6	8e-/L	.	16bb-\LL	.	4G\	-Sur-	4e-\	sur-	4e-\	Sur-	4b-\	-get	4e-/	4g/	4ee-\	4gg\	8G\Lyy	.	4ee-\	.	4gg\
.	.	.	.	.	16aa-\	.	.	.	.	.	.	.	.	.	.	.	.	.	.	.	.	.	.
8G\	.	.	8e-/	.	16gg\	.	.	.	.	.	.	.	.	.	.	.	.	.	8G\	.	.	.	.
.	.	.	.	.	16ff\JJ	.	.	.	.	.	.	.	.	.	.	.	.	.	.	.	.	.	.
8G\	.	.	8e-/	.	16ee-\LL	.	4G\	-gent	4B-\	-ger	4e-\	-get	4ryy	.	4e-/	4e-/	4ee-\	4ee-\	8G\	.	4ee-\	.	4ee-\
.	.	.	.	.	16dd\	.	.	.	.	.	.	.	.	.	.	.	.	.	.	.	.	.	.
8G\J	.	.	8e-/J	.	16cc\	.	.	.	.	.	.	.	.	.	.	.	.	.	8G\J	.	.	.	.
.	.	.	.	.	16b-\JJ	.	.	.	.	.	.	.	.	.	.	.	.	.	.	.	.	.	.
8A-\L	.	X 5\	8e-/L	.	16cc\LL	.	4A-\	est	4e-\	ex	4e-\	ex	4cc\	et	4e-/	4e-/	4ee-\	4ee-\	8A-\yyL	.	4ee-\	.	4ee-\
.	.	.	.	.	16b-\	.	.	.	.	.	.	.	.	.	.	.	.	.	.	.	.	.	.
8A-\	.	.	8e-/	.	16a-\	.	.	.	.	.	.	.	.	.	.	.	.	.	8A-\yy	.	.	.	.
.	.	.	.	.	16g\JJ	.	.	.	.	.	.	.	.	.	.	.	.	.	.	.	.	.	.
!	!	!	!	!	!	!	!	!	!	!	!	!	!	!	!LO:LB:g=original	!	!	!	!	!	!	!	!
8A-\	.	.	8e-/	.	16f/LL	.	4A-\	fav-	4c\	fa-	4e-\	fa-	4ee-\	fa-	4e-/	4e-/	4ee-\	4ee-\	8A-\yy	.	4ee-\	.	4ee-\
.	.	.	.	.	16e-/	.	.	.	.	.	.	.	.	.	.	.	.	.	.	.	.	.	.
8A-\J	.	.	8e-/J	.	16d/	.	.	.	.	.	.	.	.	.	.	.	.	.	8A-\yyJ	.	.	.	.
.	.	.	.	.	16c/JJ	.	.	.	.	.	.	.	.	.	.	.	.	.	.	.	.	.	.
=28	=28	=28	=28	=28	=28	=28	=28	=28	=28	=28	=28	=28	=28	=28	=28	=28	=28	=28	=28	=28	=28	=28	=28
8B-\L	.	6_ 4_	16e-/LL	.	8B-/L	.	4B-\	-il-	4e-\	-vi-	4g\	-vil-	4b-\	-vil-	2e-/	2g/	2ee-\	2gg\	8B-\L	.	2ee-\	.	2gg\
.	.	.	16g/	.	.	.	.	.	.	.	.	.	.	.	.	.	.	.	.	.	.	.	.
8B-\	.	.	16e-/	.	16c/L	.	.	.	.	.	.	.	.	.	.	.	.	.	8B-\	.	.	.	.
.	.	.	16g/	.	16d/JJ	.	.	.	.	.	.	.	.	.	.	.	.	.	.	.	.	.	.
8B-\	.	.	16e-/	.	16e-/LL	.	4B-\	-la	4e-\	-la	4g\	-la	4ee-\	-la	.	.	.	.	8B-\	.	.	.	.
.	.	.	16g/	.	16f/	.	.	.	.	.	.	.	.	.	.	.	.	.	.	.	.	.	.
8B-\J	.	.	16e-/	.	16g/	.	.	.	.	.	.	.	.	.	.	.	.	.	8B-\J	.	.	.	.
.	.	.	16g/JJ	.	16a-/JJ	.	.	.	.	.	.	.	.	.	.	.	.	.	.	.	.	.	.
!	!	!	!	!	!LO:LB:g=original	!	!	!	!	!	!	!	!	!	!	!	!	!	!	!	!	!	!
8B-\L	.	.	16e-/LL	.	16b-\LL	.	4B-\	ju-	4e-\	ju-	4g\	ju-	4gg\	ju-	4e-/	4g/	4ee-\	4gg\	8B-\L	.	4ee-\	.	2gg\
.	.	.	16g/	.	16cc\	.	.	.	.	.	.	.	.	.	.	.	.	.	.	.	.	.	.
8B-\	.	.	16e-/	.	16dd\	.	.	.	.	.	.	.	.	.	.	.	.	.	8B-\	.	.	.	.
.	.	.	16g/	.	16ee-\JJ	.	.	.	.	.	.	.	.	.	.	.	.	.	.	.	.	.	.
8B-\	.	.	16e-/	.	16ff\LL	.	4B-\	-di-	4e-\	-di-	4g\	-di-	4ee-\	-di-	4e-/	4g/	4ee-\	4gg\	8B-\	.	4ee-\	.	.
.	.	.	16g/	.	16gg\	.	.	.	.	.	.	.	.	.	.	.	.	.	.	.	.	.	.
8B-\J	.	.	16e-/	.	16aa-\	.	.	.	.	.	.	.	.	.	.	.	.	.	8B-\J	.	.	.	.
.	.	.	16g/JJ	.	16bb-\JJ	.	.	.	.	.	.	.	.	.	.	.	.	.	.	.	.	.	.
!	!	!	!	!	!	!	!	!	!	!	!	!	!	!	!	!	!	!LO:LB:g=original	!	!	!	!	!
=29	=29	=29	=29	=29	=29	=29	=29	=29	=29	=29	=29	=29	=29	=29	=29	=29	=29	=29	=29	=29	=29	=29	=29
8BB-/L	.	X 5_	16f/LL	.	16ee-\LL	.	4BB-\	-can-	4B-\	-can-	4f\	-can-	4ee-\	-cun-	4e-/	4e-/	4ee-\	4ff\	8BB-/L	.	4b-\	.	4ff\
.	.	.	16f/	.	16ee-\	.	.	.	.	.	.	.	.	.	.	.	.	.	.	.	.	.	.
8BB-/	.	.	16f/	.	16ee-\	.	.	.	.	.	.	.	.	.	.	.	.	.	8BB-/	.	.	.	.
.	.	.	16f/	.	16ee-\	.	.	.	.	.	.	.	.	.	.	.	.	.	.	.	.	.	.
8BB-/	.	.	16f/	.	16ee-\	.	4BB-\	-dus	4B-\	-dus	4f\	-dus	4ee-\	-dus	8e-/L	8e-/L	8ee-\L	8ff\L	8BB-/	.	8b-\L	.	8ff\L
.	.	.	16f/	.	16ee-\	.	.	.	.	.	.	.	.	.	.	.	.	.	.	.	.	.	.
8BB-/J	.	.	16f/	.	16ee-\	.	.	.	.	.	.	.	.	.	8e-/J	8e-/J	8ee-\J	8ff\J	8BB-/J	.	8b-\J	.	8ff\J
.	.	.	16f/JJ	.	16ee-\JJ	.	.	.	.	.	.	.	.	.	.	.	.	.	.	.	.	.	.
8BB-/L	.	.	16f/LL	.	16dd\LL	.	4BB-\	ho-	4B-\	po-	4f\	ho-	4ddn\	ho-	4B-/	4b-/	4b-/	4ff\	8BB-/L	.	4b-\	.	4ff\
.	.	X X	16f/	.	16dd\	.	.	.	.	.	.	.	.	.	.	.	.	.	.	.	.	.	.
8BB-/	.	.	16f/	.	16dd\	.	.	.	.	.	.	.	.	.	.	.	.	.	8BB-/	.	.	.	.
.	.	.	16f/	.	16dd\	.	.	.	.	.	.	.	.	.	.	.	.	.	.	.	.	.	.
8BB-/	.	.	16f/	.	16dd\	.	4BB-\	-mo-	4B-\	-mo-	4f\	-mo-	4dd\	-mo	4B-/	4b-/	4b-/	4ff\	8BB-/	.	4b-\	.	4ff\
.	.	.	16f/	.	16dd\	.	.	.	.	.	.	.	.	.	.	.	.	.	.	.	.	.	.
8BB-/J	.	.	16f/	.	16dd\	.	.	.	.	.	.	.	.	.	.	.	.	.	8BB-/J	.	.	.	.
.	.	.	16f/JJ	.	16dd\JJ	.	.	.	.	.	.	.	.	.	.	.	.	.	.	.	.	.	.
*	*	*	*	*	*	*	*	*	*	*	*	*	*	*	*	*	*	*	*Xtremolo	*	*	*	*
*	*	*	*	*	*Xtremolo	*	*	*	*	*	*	*	*	*	*	*	*	*	*	*	*	*	*
*	*	*	*Xtremolo	*	*	*	*	*	*	*	*	*	*	*	*	*	*	*	*	*	*	*	*
*Xtremolo	*	*	*	*	*	*	*	*	*	*	*	*	*	*	*	*	*	*	*	*	*	*	*
!	!	!	!	!	!	!	!LO:LB:g=original	!	!	!	!	!	!	!	!	!	!	!	!	!	!	!	!
=30	=30	=30	=30	=30	=30	=30	=30	=30	=30	=30	=30	=30	=30	=30	=30	=30	=30	=30	=30	=30	=30	=30	=30
4E-\	.	.	4g/	.	4ee-\	.	4E-\	-re-	4B-\	-re-	4g\	-re-	4ee-\	me-	4e-/	4g/	4g/	4ee-\	4E-\	.	2g/	.	4ee-\
4r	.	.	4r	.	4r	.	4E-\	-us	4B-\	-us	4g\	-us	4ee-\	-us	4r	4r	4r	4r	4r	.	.	.	4r
2r	.	.	8ee-\L	.	8gg\L	.	2r	.	2r	.	2r	.	2r	.	2r	2r	2r	2r	2r	.	2r	.	2r
.	.	.	8b-\	.	8ee-\	.	.	.	.	.	.	.	.	.	.	.	.	.	.	.	.	.	.
.	.	.	8b-\	.	8ee-\	.	.	.	.	.	.	.	.	.	.	.	.	.	.	.	.	.	.
.	.	.	8g\J	.	8b-\J	.	.	.	.	.	.	.	.	.	.	.	.	.	.	.	.	.	.
!	!	!	!	!	!	!	!	!	!	!	!	!	!	!	!	!	!	!	!	!	!LO:LB:g=original	!	!
!	!	!	!LO:LB:g=original	!	!	!	!	!	!LO:LB:g=original	!	!	!	!	!	!	!	!	!	!	!	!	!	!
=31	=31	=31	=31	=31	=31	=31	=31	=31	=31	=31	=31	=31	=31	=31	=31	=31	=31	=31	=31	=31	=31	=31	=31
2r	.	.	8g/L	.	8b-/L	.	2r	.	2r	.	2r	.	2r	.	2r	2r	2r	2r	2r	.	2r	.	2r
.	.	.	8e-/	.	8g/	.	.	.	.	.	.	.	.	.	.	.	.	.	.	.	.	.	.
!	!	!	!	!	!	!LO:DY:a:t=pio	!	!	!	!	!	!	!	!	!	!	!	!	!	!	!	!	!
.	.	.	8e-/	.	8g/	p	.	.	.	.	.	.	.	.	.	.	.	.	.	.	.	.	.
.	.	.	8g/J	.	8b-/J	.	.	.	.	.	.	.	.	.	.	.	.	.	.	.	.	.	.
!	!LO:DY:a:t=pi	!	!	!	!	!	!	!	!	!	!	!	!	!	!	!	!	!	!	!LO:DY:a	!	!	!
2BB-/	p	.	2d/	.	8a-/L	.	4BB-/	hu-	4B-\	hui-	4d\	hu-	8a-\L	hu-	2B-/	2b-/	2b-/	2ff\	2BB-/	p	2dd\	.	2ff\
.	.	.	.	.	8g/	.	.	.	.	.	.	.	8g\J	.	.	.	.	.	.	.	.	.	.
.	.	.	.	.	8a-/	.	4BB-/	-ic	4B-\	-ic	4d\	-ig	8a-\L	-ic	.	.	.	.	.	.	.	.	.
.	.	.	.	.	8b-/J	.	.	.	.	.	.	.	8b-\J	.	.	.	.	.	.	.	.	.	.
!	!	!	!	!	!	!	!	!	!	!	!	!	!	!	!	!	!	!	!LO:LB:g=original	!	!	!	!
=32	=32	=32	=32	=32	=32	=32	=32	=32	=32	=32	=32	=32	=32	=32	=32	=32	=32	=32	=32	=32	=32	=32	=32
.	.	.	.	.	8qqa-/	.	.	.	.	.	.	.	8qqa-/	.	.	.	.	.	.	.	.	.	.
!	!	!	!	!LO:DY:a:t=po&colon;	!	!	!	!	!	!	!	!	!	!	!	!	!	!	!	!	!	!	!
2E-\	.	.	2e-/	p	4g/	.	4D\	er-	4B-\	er-	4e-\	er-	4g\	ergo	2e-/	2g/	2dd\	2gg\	2E-\	.	2ee-\	.	2gg\
.	.	.	.	.	4g/	.	4E-\	-go	4B-\	-go,	4e-\	-go	4g\yy	.	.	.	.	.	.	.	.	.	.
!	!	!	!	!LO:DY:a:t=fo	!	!	!	!	!	!	!	!	!	!	!	!	!	!	!	!	!	!	!
2r	.	.	8ee-\L	f	8gg\L	.	2r	.	2r	.	2r	.	2r	.	2r	2r	2r	2r	2r	.	2r	.	2r
.	.	.	8b-\	.	8ee-\	.	.	.	.	.	.	.	.	.	.	.	.	.	.	.	.	.	.
.	.	.	8b-\	.	8ee-\	.	.	.	.	.	.	.	.	.	.	.	.	.	.	.	.	.	.
.	.	.	8g\J	.	8b-\J	.	.	.	.	.	.	.	.	.	.	.	.	.	.	.	.	.	.
!	!	!	!	!	!	!	!	!	!	!	!LO:LB:g=original	!	!LO:PB:g=original	!	!	!	!	!	!	!	!	!	!LO:LB:g=original
!	!	!	!	!	!	!	!	!	!	!	!	!	!	!	!	!LO:LB:g=original	!	!	!	!	!	!	!
=33	=33	=33	=33	=33	=33	=33	=33	=33	=33	=33	=33||	=33	=33	=33	=33	=33	=33	=33	=33	=33	=33	=33	=33
2r	.	.	8g/L	.	8b-/L	.	2r	.	2r	.	2r	.	2r	.	2r	2r	2r	2r	2r	.	2r	.	2r
.	.	.	8e-/	.	8g/	.	.	.	.	.	.	.	.	.	.	.	.	.	.	.	.	.	.
.	.	.	8e-/	.	8g/	.	.	.	.	.	.	.	.	.	.	.	.	.	.	.	.	.	.
.	.	.	8g/J	.	8b-/J	.	.	.	.	.	.	.	.	.	.	.	.	.	.	.	.	.	.
!	!	!	!	!LO:DY:a	!	!LO:DY:a	!	!	!	!	!	!	!	!	!	!	!	!	!	!	!	!	!
2BB-/	.	.	2d/	p	8a-/L	p	4BB-/	par-	4B-\	par-	4d\	par-	8a-\L	par-	2B-/	2b-/	2b-/	2ff\	2BB-/	.	2dd\	.	2ff\
.	.	.	.	.	8g/	.	.	.	.	.	.	.	8g\J	.	.	.	.	.	.	.	.	.	.
.	.	.	.	.	8a-/	.	4BB-/	-ce	4B-\	-ce	4d\	-ce	8a-\L	-ce	.	.	.	.	.	.	.	.	.
.	.	.	.	.	8b-/J	.	.	.	.	.	.	.	8b-\J	.	.	.	.	.	.	.	.	.	.
!	!	!	!	!	!LO:LB:g=original	!	!	!	!	!	!	!	!	!	!	!	!	!	!	!	!	!	!
=34	=34	=34	=34	=34	=34	=34	=34	=34	=34	=34	=34	=34	=34	=34	=34	=34	=34	=34	=34	=34	=34	=34	=34
.	.	.	.	.	8qqa-/	.	.	.	.	.	.	.	.	.	.	.	.	.	.	.	.	.	.
!	!	!	!	!LO:DY:a:t=for	!	!	!	!	!	!	!	!	!	!	!	!	!	!	!	!	!	!	!
2E-\	.	.	2e-/	f	4g/	.	4E-\	De-	4B-\	de-	4e-\	De-	4g\	De-	2e-/	2g/	2ee-\	2gg\	2E-\	.	2ee-\	.	2gg\
.	.	.	.	.	4g/	.	4E-\	-us	4B-\	-us	4e-\	-us	4g\	-us	.	.	.	.	.	.	.	.	.
4C/	.	X 6-	4e-/	.	4an/	.	4C\	Do-	4F/	pi-	4e-\	pi-	4an\	pi-	2r	2r	2r	2r	4C\	.	2r	.	2r
4C/	.	.	4e-/	.	4a/	.	4C\	-mi-	4F/	-e	4e-\	-e	4a\	-ie	.	.	.	.	4C\	.	.	.	.
=35	=35	=35	=35	=35	=35	=35	=35	=35	=35	=35	=35	=35	=35	=35	=35	=35	=35	=35	=35	=35	=35	=35	=35
!	!	!	!	!	!	!	!	!	!	!	!	!	!	!	!LO:TX:a:t=9	!LO:TX:a:t=9	!LO:TX:a:t=9.	!LO:TX:a:t=9	!	!	!LO:TX:a:t=9	!	!LO:TX:a:t=9. Pausen
4BB-/	.	X 8_	4d/	.	4b-\	.	4BB-/	-ne	4F/	Je-	4d\	De-	4b-\	Je-	00r	00r	00r	00r	4BB-/	.	00r	.	00r
4BB-/	.	.	4d/	.	4b-\	.	4BB-/	Do-	4F/	-su	4d\	-us	4b-\	-su	.	.	.	.	4BB-/	.	.	.	.
4C/	.	X 6n	4e-/	.	4an\	.	4C/	.	4F/	Do-	4e-\	Do-	4an\	Do-	.	.	.	.	4C/	.	.	.	.
4C/	.	.	4e-/	.	4a\	.	4C/	-mi-	4F/	-mi-	4e-\	-mi-	4a\	-mi-	.	.	.	.	4C/	.	.	.	.
!LO:LB:g=original	!	!	!	!	!	!	!LO:PB:g=original	!	!	!	!	!	!	!	!	!	!	!	!	!	!	!	!
=36	=36	=36	=36	=36	=36	=36	=36	=36	=36	=36	=36	=36	=36	=36	=36	=36	=36	=36	=36	=36	=36	=36	=36
*	*	*	*	*	*	*	*	*	*	*	*2\right	*	*2\right	*	*	*	*	*	*	*	*	*	*
2BB-/	.	X 8	2d/	.	2b-\	.	2BB-/	-ne	2F/	-ne	2d\	-ne	2b-\	-ne	.	.	.	.	2BB-/	.	.	.	.
!	!	!	!	!LO:DY:a:t=po	!	!	!	!	!	!	!	!	!LO:TX:a:i:t=Solo	!	!	!	!	!	!	!	!	!	!
4A-X\	.	.	8r	p	4r	.	2r	.	2r	.	2r	.	4cc\	Do-	.	.	.	.	4A-X\	.	.	.	.
.	.	.	8d/L	.	.	.	.	.	.	.	.	.	.	.	.	.	.	.	.	.	.	.	.
4r	.	.	8f/	.	4cc\	.	.	.	.	.	.	.	4cc\	-na	.	.	.	.	4r	.	.	.	.
.	.	.	8d/J	.	.	.	.	.	.	.	.	.	.	.	.	.	.	.	.	.	.	.	.
=37	=37	=37	=37	=37	=37	=37	=37	=37	=37	=37	=37	=37	=37	=37	=37	=37	=37	=37	=37	=37	=37	=37	=37
!	!	!	!	!	!	!	!LO:TX:a:t=8	!	!LO:TX:a:t=8.	!	!LO:TX:a:t=8.	!	!	!	!	!	!	!	!	!	!	!	!
4G\	.	.	8r	.	4r	.	00r	.	00r	.	00r	.	4b-\	e-	.	.	.	.	4G\	.	.	.	.
.	.	.	8e-/L	.	.	.	.	.	.	.	.	.	.	.	.	.	.	.	.	.	.	.	.
4r	.	.	8g/	.	4b-\	.	.	.	.	.	.	.	4ee-\	.	.	.	.	.	4r	.	.	.	.
.	.	.	8e-/J	.	.	.	.	.	.	.	.	.	.	.	.	.	.	.	.	.	.	.	.
!	!	!	!	!	!	!	!	!	!	!	!	!	!LO:LB:g=original	!	!	!	!	!	!	!	!	!	!
4A-\	.	.	8r	.	4r	.	.	.	.	.	.	.	8ee-\L	.	.	.	.	.	4A-\	.	.	.	.
.	.	.	8c/L	.	.	.	.	.	.	.	.	.	8cc\J	.	.	.	.	.	.	.	.	.	.
4r	.	.	8e-/	.	4a-X\	.	.	.	.	.	.	.	8a-X\L	-is	.	.	.	.	4r	.	.	.	.
.	.	.	8c/J	.	.	.	.	.	.	.	.	.	8f\J	.	.	.	.	.	.	.	.	.	.
=38	=38	=38	=38	=38	=38	=38	=38	=38	=38	=38	=38	=38	=38	=38	=38	=38	=38	=38	=38	=38	=38	=38	=38
4B-\	.	.	8r	.	4r	.	.	.	.	.	.	.	2e-/	Re-	.	.	.	.	4B-\	.	.	.	.
.	.	.	8B-/L	.	.	.	.	.	.	.	.	.	.	.	.	.	.	.	.	.	.	.	.
4r	.	.	8d/	.	4g/	.	.	.	.	.	.	.	.	.	.	.	.	.	4r	.	.	.	.
.	.	.	8B-/J	.	.	.	.	.	.	.	.	.	.	.	.	.	.	.	.	.	.	.	.
4BB-/	.	.	8r	.	4r	.	.	.	.	.	.	.	4g/	.	.	.	.	.	4BB-/	.	.	.	.
.	.	.	8A-/L	.	.	.	.	.	.	.	.	.	.	.	.	.	.	.	.	.	.	.	.
4r	.	.	8d/	.	4f/	.	.	.	.	.	.	.	4f/	-qui-	.	.	.	.	4r	.	.	.	.
.	.	.	8A-/J	.	.	.	.	.	.	.	.	.	.	.	.	.	.	.	.	.	.	.	.
!	!	!	!LO:LB:g=original	!	!	!	!	!	!	!	!	!	!	!	!	!	!	!	!	!	!	!	!
=39	=39	=39	=39	=39	=39	=39	=39	=39	=39	=39	=39	=39	=39	=39	=39	=39	=39	=39	=39	=39	=39	=39	=39
!	!LO:DY:t=for	!	!	!	!	!	!	!	!	!	!	!	!	!	!	!	!	!	!	!	!	!	!
4E-\	f	.	4G/	.	4e-/	.	.	.	.	.	.	.	4e-/	-em	00r	00r	00r	00r	4E-\	.	00r	.	00r
4EE-/	.	.	4r	.	4r	.	.	.	.	.	.	.	4r	.	.	.	.	.	4EE-/	.	.	.	.
4C\	.	.	8e-/L	.	4an/	.	.	.	.	.	.	.	2r	.	.	.	.	.	4C/	.	.	.	.
.	.	.	8f/	.	.	.	.	.	.	.	.	.	.	.	.	.	.	.	.	.	.	.	.
!	!	!	!	!	!	!	!	!	!	!	!	!	!	!	!	!	!	!	!	!LO:DY:a	!	!	!
4C\	.	.	8e-/	.	4a/	.	.	.	.	.	.	.	.	.	.	.	.	.	4C/	p	.	.	.
.	.	.	8f/J	.	.	.	.	.	.	.	.	.	.	.	.	.	.	.	.	.	.	.	.
!	!	!	!	!	!	!	!	!	!	!	!	!	!	!	!	!	!	!	!LO:LB:g=original	!	!	!	!
=40	=40	=40	=40	=40	=40	=40	=40	=40	=40	=40	=40	=40	=40	=40	=40	=40	=40	=40	=40	=40	=40	=40	=40
2BB-/	.	.	2d/	.	2b-\	.	.	.	.	.	.	.	1r	.	.	.	.	.	2BB-/	.	.	.	.
4C/	.	.	8e-/L	.	4r	.	.	.	.	.	.	.	.	.	.	.	.	.	4C/	.	.	.	.
.	.	.	8f/	.	.	.	.	.	.	.	.	.	.	.	.	.	.	.	.	.	.	.	.
4C/	.	.	8e-/	.	4cc\	.	.	.	.	.	.	.	.	.	.	.	.	.	4C/	.	.	.	.
.	.	.	8f/J	.	.	.	.	.	.	.	.	.	.	.	.	.	.	.	.	.	.	.	.
!	!	!	!	!	!LO:LB:g=original	!	!	!	!	!	!	!	!	!	!	!	!	!	!	!	!	!	!
=41	=41	=41	=41	=41	=41	=41	=41	=41	=41	=41	=41	=41	=41	=41	=41	=41	=41	=41	=41	=41	=41	=41	=41
2BB-/	.	.	2d/	.	1ryy	.	00r	.	00r	.	00r	.	2r	.	.	.	.	.	2BB-/	.	.	.	.
!	!LO:DY:a:t=pia	!	!	!	!	!	!	!	!	!	!	!	!	!	!	!	!	!	!	!LO:DY:a:rj	!	!	!
4A-X\	p	.	8r	.	.	.	.	.	.	.	.	.	4b-\	Do-	.	.	.	.	4A-X\	p	.	.	.
.	.	.	8d/L	.	.	.	.	.	.	.	.	.	.	.	.	.	.	.	.	.	.	.	.
4r	.	.	8f/	.	.	.	.	.	.	.	.	.	4cc\	-na	.	.	.	.	4r	.	.	.	.
.	.	.	8d/J	.	.	.	.	.	.	.	.	.	.	.	.	.	.	.	.	.	.	.	.
=42	=42	=42	=42	=42	=42	=42	=42	=42	=42	=42	=42	=42	=42	=42	=42	=42	=42	=42	=42	=42	=42	=42	=42
4G\	.	.	8r	.	4r	.	.	.	.	.	.	.	4b-\	e-	.	.	.	.	4G\	.	.	.	.
.	.	.	8e-/L	.	.	.	.	.	.	.	.	.	.	.	.	.	.	.	.	.	.	.	.
4r	.	.	8g/	.	4b-\	.	.	.	.	.	.	.	4ee-\	-is	.	.	.	.	4r	.	.	.	.
.	.	.	8e-/J	.	.	.	.	.	.	.	.	.	.	.	.	.	.	.	.	.	.	.	.
4A-\	.	.	8r	.	4r	.	.	.	.	.	.	.	8ee-\L	e-	.	.	.	.	4A-\	.	.	.	.
.	.	.	8c/L	.	.	.	.	.	.	.	.	.	8cc\J	.	.	.	.	.	.	.	.	.	.
4r	.	.	8f/	.	4a-X\	.	.	.	.	.	.	.	8a-\L	-is	.	.	.	.	4r	.	.	.	.
.	.	.	8c/J	.	.	.	.	.	.	.	.	.	8f\J	.	.	.	.	.	.	.	.	.	.
!LO:LB:g=original	!	!	!	!	!	!	!	!	!	!	!	!	!LO:LB:g=original	!	!	!	!	!LO:LB:g=original	!	!	!	!	!
=43	=43	=43	=43	=43	=43	=43	=43	=43	=43	=43	=43	=43	=43	=43	=43	=43	=43	=43	=43	=43	=43	=43	=43
4B-\	.	.	8r	.	4r	.	.	.	.	.	.	.	2e-/	re-	1r	1r	1r	1r	4B-\	.	1r	.	1r
.	.	.	8B-/L	.	.	.	.	.	.	.	.	.	.	.	.	.	.	.	.	.	.	.	.
4r	.	.	8e-/	.	4g/	.	.	.	.	.	.	.	.	.	.	.	.	.	4r	.	.	.	.
.	.	.	8B-/J	.	.	.	.	.	.	.	.	.	.	.	.	.	.	.	.	.	.	.	.
4BB-/	.	.	8r	.	4r	.	.	.	.	.	.	.	4g/	-qui-	.	.	.	.	4BB-/	.	.	.	.
.	.	.	8A-/L	.	.	.	.	.	.	.	.	.	.	.	.	.	.	.	.	.	.	.	.
4r	.	.	8d/	.	4f/	.	.	.	.	.	.	.	4f/	-em	.	.	.	.	4r	.	.	.	.
.	.	.	8A-/J	.	.	.	.	.	.	.	.	.	.	.	.	.	.	.	.	.	.	.	.
=44	=44	=44	=44	=44	=44	=44	=44	=44	=44	=44	=44	=44	=44	=44	=44	=44	=44	=44	=44	=44	=44	=44	=44
!	!	!	!	!LO:DY:a:t=fo&colon;	!	!	!	!	!	!	!	!	!	!	!	!	!	!	!	!	!	!	!
4E-\	.	.	4B-/	f	4e-/	.	.	.	.	.	.	.	4e-/	.	2r	2r	2r	2r	4E-\	.	2r	.	2r
4r	.	.	4r	.	4r	.	.	.	.	.	.	.	4r	.	.	.	.	.	4r	.	.	p	.
2r	.	.	4ee-\	.	4gg\	.	.	.	.	.	.	.	2r	.	4e-/	4g/	4ee-\	4gg\	2r	.	4ee-\	.	4gg\
.	.	.	4ee-\	.	4gg\	.	.	.	.	.	.	.	.	.	4e-/	4g/	4ee-\	4gg\	.	.	4ee-\	.	4gg\
!	!	!	!	!	!	!	!	!	!LO:LB:g=original	!	!LO:PB:g=original	!	!	!	!	!	!	!	!	!	!	!	!
!	!	!	!	!	!	!	!	!	!	!	!	!	!	!	!	!	!LO:LB:g=original	!	!	!	!	!	!
=45	=45	=45	=45	=45	=45	=45	=45	=45	=45	=45	=45	=45	=45	=45	=45	=45	=45	=45	=45	=45	=45	=45	=45
*	*	*	*	*	*	*	*	*	*2\right	*	*	*	*	*	*	*	*	*	*	*	*	*	*
2r	.	.	4gg\	.	4bb-\	.	2r	.	2r	.	2r	.	2r	.	4g/	4b-/	4gg\	4bb-\	2r	.	4gg\	.	4bb-\
.	.	.	4r	.	4r	.	.	.	.	.	.	.	.	.	4r	4r	4r	4r	.	.	4r	.	4r
!LO:TX:a:i:t=Tutti	!	!	!	!LO:DY:a:t=for	!	!	!	!	!	!	!	!	!	!	!	!	!	!	!	!	!	!LO:DY:b:rj	!
4BB-/	.	.	4e- 4B-/	f	4dd\	.	2BB-/	a-	2B-\	am-	2a-\	a-	2dd\	A-	4B-/	4b-/	4b-/	4ff\	4BB-/	.	4b-\	f	4ff\
4BB-/	.	.	4f 4B-/	.	4dd\	.	.	.	.	.	.	.	.	.	4B-/	4b-/	4b-/	4ff\	4BB-/	.	4b-\	.	4ff\
!	!	!	!LO:LB:g=original	!	!	!	!	!	!	!	!	!	!	!	!	!	!	!	!	!	!	!	!
!	!	!	!	!	!	!	!	!	!	!	!	!	!	!	!	!	!	!LO:LB:g=original	!	!	!	!	!
!	!	!	!	!	!	!	!	!	!	!	!	!	!	!	!LO:LB:g=original	!	!	!	!	!	!	!	!
=46	=46	=46	=46	=46	=46	=46	=46	=46	=46	=46	=46	=46	=46	=46	=46	=46	=46	=46	=46	=46	=46	=46	=46
4E-\	.	.	4g 4B-/	.	4ee-\	.	4E-\	-men	4B-\	-en	4g\	-men	4ee-\	-men	4e-/	4g/	4ee-\	4gg\	4E-\	.	4ee-\	.	4gg\
4r	.	.	4r	.	4r	.	4r	.	4r	.	4r	.	4r	.	4r	4r	4r	4r	4r	.	4r	.	4r
!	!	!	!	!LO:DY:a:t=po	!	!	!	!	!	!	!	!	!	!	!	!	!	!	!	!	!	!	!
2r	.	.	4ee-\	p	4gg\	.	2r	.	2r	.	2r	.	2r	.	4e-/	4g/	4ee-\	4gg\	2r	.	4ee-\	.	4gg\
.	.	.	4ee-\	.	4gg\	.	.	.	.	.	.	.	.	.	4e-/	4g/	4ee-\	4gg\	.	.	4ee-\	.	4gg\
=47	=47	=47	=47	=47	=47	=47	=47	=47	=47	=47	=47	=47	=47	=47	=47	=47	=47	=47	=47	=47	=47	=47	=47
2r	.	.	4gg\	.	4bb-\	.	2r	.	2r	.	2r	.	2r	.	4g/	4b-/	4gg\	4bb-\	2r	.	4gg\	.	4bb-\
.	.	.	4r	.	4r	.	.	.	.	.	.	.	.	.	4r	4r	4r	4r	.	.	4r	.	4r
!	!	!	!	!LO:DY:a:t=fo	!	!	!	!	!	!	!	!	!	!	!	!	!	!	!	!	!	!	!
4BB-/	.	.	4f 4B-/	f	4dd\	.	2BB-/	a-	2B-\	am-	2a-\	a-	2dd\	A-	4B-/	4b-/	4b-/	4ff\	4BB-/	.	4dd\	.	4ff\
4BB-/	.	.	4f 4B-/	.	4dd\	.	.	.	.	.	.	.	.	.	4B-/	4b-/	4b-/	4ff\	4BB-/	.	4dd\	.	4ff\
=48	=48	=48	=48	=48	=48	=48	=48	=48	=48	=48	=48	=48	=48	=48	=48	=48	=48	=48	=48	=48	=48	=48	=48
4E-\	.	.	4g 4B-/	.	4ee-\	.	4E-\	-men	4B-\	-en	4g\	-men	4ee-\	-men	4e-/	4g/	4ff\	4gg\	4E-\	.	4ee-\	.	4gg\
4r	.	.	4r	.	4r	.	4r	.	4r	.	4r	.	4r	.	4r	4r	4r	4r	4r	.	4r	.	4r
!	!	!	!	!	!	!	!	!	!	!	!	!	!	!	!	!	!	!	!	!	!LO:LB:g=original	!	!
4E-\	.	.	4e- 4B-/	.	4e- 4G/	.	2r	.	2r	.	2r	.	2r	.	4e-/	4g/	4g/	4ee-\	4E-\	.	4g/	.	4r
4E-\	.	.	4e- 4G/	.	4e- 4G/	.	.	.	.	.	.	.	.	.	4e-/	4g/	4g/	4ee-\	4E-\	.	4g/	.	4ee-\
=49	=49	=49	=49	=49	=49	=49	=49	=49	=49	=49	=49	=49	=49	=49	=49	=49	=49	=49	=49	=49	=49	=49	=49
!	!	!	!	!	!	!	!LO:TX:a:t=1	!	!	!	!	!	!	!	!	!	!	!	!	!	!	!	!
4E-\	.	.	4e- 4G/	.	4e- 4G/	.	1r	.	1r	.	1r	.	1r	.	4e-/	4g/	4g/	4ee-\	4E-\	.	4g/	.	4ee-\
4r	.	.	4r	.	4r	.	.	.	.	.	.	.	.	.	4r	4r	4r	4r	4r	.	4r	.	4r
!LO:TX:b:i:t=Offertorium	!	!	!	!	!	!	!	!	!	!	!	!	!	!	!	!	!	!	!	!	!	!	!
2r	.	.	2r	.	2r	.	.	.	.	.	.	.	.	.	2r	2r	2r	2r	2r	.	2r	.	2r
==	==	==	==	==	==	==	==	==	==	==	==	==	==	==	==	==	==	==	==	==	==	==	==
*-	*-	*-	*-	*-	*-	*-	*-	*-	*-	*-	*-	*-	*-	*-	*-	*-	*-	*-	*-	*-	*-	*-	*-
!!!system-decoration: [(g1)][(g2)][(g3)][(g4)][(s14)]
!!!AIN: 1 alto 1 bass 2 clarb 1 cor 1 fagot 1 organ 1 soprn 1 tenor 2 tromp 2 violn
!!!ENC: Berenika Jozajtis
!!!END: 2020-11-09
!!!EED: Antoni Szymański
!!!EST: 2022-04-01
